X: 1
T:La preso de Lleida
T:A la ciutat de Lleida
C:anon.
O:Spain
A:Catalana
Z:Transcribed by Frank Nordberg - http://www.musicaviva.com
M:3/8
L:1/8
Q:3/8=138
K:Am
E|"Am"A2c|"E7"(Bc)B|"Am"A2A|"Am"z z E|
w:A la ciu-tat _ de Llei-da n'thi
"Am"A2c|"E7"(Bc)B|"Am"A3-|"Am"A z c|
w:ha u-na _ pre-s\'o;   de
"C/G"e2e|"G7"d2e|"C"cBc|"F#m7-"eee|
w:pre-sos mai n'hi man-quen, pe-ti-ta, bo-
"G"dB2-|"E7"B z B|"Am"e2e|"E7"d2e|
w:ni-ca, _ prou n'hi po-ta_el ba-
"F"cAc|"E7"eBc|"Am"A3-|"Am"A z|]
w:r\'o _ d\'on-de-ta, don-d\'o.
W:
W:A la ciutat de Lleida
W:hi ha una pres\'o;
W:de presos mai n'hi manquen,
W:  petita, bonica
W:prou n'hi porta el bar\'o
W:  dondeta, dond\'o.
W:
W:Hi ha trenta tres presos,
W:canten una can\cc\'o:
W:l'ha treta i l'ha dictada
W:  petita, bonica
W:el m\'es jove de tots
W:  dondeta, dond\'o.
W:
W:La nina se'ls escolta
W:de dalt del mirador;
W:ja se'n va en el seu pare
W:  petita, bonica
W:a demanar-li un do
W:  dondeta, dond\'o.
W:
W:Ai, filla Margarida,
W:quin do vols que jo et do.
W:Ai, pare, lo mou pare
W:  petita, bonica
W:les claus de la pres\'o
W:  dondeta, dond\'o.
W:
W:Digues perque vols, filla,
W:les claus de la pres\'o.
W:Ai, pare, lo meu pare
W:  petita, bonica
W:per treure'n l'aimador
W:  dondeta, dond\'o.
W:
W:Ai, filla Margarida,
W:sera el primer de tots,
W:les cordes s\'on filades
W:  petita, bonica
W:que em costen a pes d'or
W:  dondeta, dond\'o.
W:
W:Ai, pare, lo meu pare,
W:pengeu-me a mi i tot;
W:feu les forques de plata
W:  petita, bonica
W:i feu els dogals d'or
W:  dondeta, dond\'o.
W:
W:I a cada cap de forca
W:poseu-hi un pom de flors,
W:perqu\`e la gent quan passi
W:  petita, bonica
W:senti la bona olor
W:  dondeta, dond\'o.
